icons/branch-add.svg

<svg xmlns="http://www.w3.org/2000/svg" viewBox="0 0 24 24" fill="currentColor">
  <path d="M4 2.05005c.41421 0 .75.33579.75.75V6.3501h2.53694C7.50285 5.04848 8.63895 4.05005 10 4.05005h8c1.5142 0 2.75 1.23579 2.75 2.75v1C20.75 9.31426 19.5142 10.55 18 10.55h-8c-1.4975 0-2.72268-1.2086-2.74955-2.6999H4.75V13.3c0 .6858.56421 1.25 1.25 1.25h1.26131c.12707-1.3979 1.30873-2.5 2.73869-2.5h8c1.5142 0 2.75 1.2358 2.75 2.75 0 .4143-.3358.75-.75.75s-.75-.3357-.75-.75c0-.6857-.5642-1.25-1.25-1.25h-8c-.68579 0-1.25.5643-1.25 1.25v1c0 .6858.56421 1.25 1.25 1.25.4142 0 .75.3358.75.75 0 .4143-.3358.75-.75.75-1.42996 0-2.61162-1.102-2.73869-2.5H6c-1.51421 0-2.75-1.2357-2.75-2.75V2.80005c0-.41421.33579-.75.75-.75ZM8.75 7.1001v.69995c0 .68579.56421 1.25 1.25 1.25h8c.6858 0 1.25-.56421 1.25-1.25v-1c0-.68579-.5642-1.25-1.25-1.25h-8c-.68579 0-1.25.56421-1.25 1.25v.30005Zm7.4 9.1999c0-.4142-.3358-.75-.75-.75s-.75.3358-.75.75v1.6501H13c-.4142 0-.75.3358-.75.75s.3358.75.75.75h1.65V21.2c0 .4143.3358.75.75.75s.75-.3357.75-.75v-1.7499h1.75c.4142 0 .75-.3358.75-.75s-.3358-.75-.75-.75h-1.75V16.3Z"/>
</svg>

<svg width="24" height="24" viewBox="0 0 24 24" fill="none" xmlns="http://www.w3.org/2000/svg">
<path fill-rule="evenodd" clip-rule="evenodd" d="M4 2.05005C4.41421 2.05005 4.75 2.38584 4.75 2.80005V6.3501H7.28694C7.50285 5.04848 8.63895 4.05005 10 4.05005H18C19.5142 4.05005 20.75 5.28584 20.75 6.80005V7.80005C20.75 9.31426 19.5142 10.55 18 10.55H10C8.5025 10.55 7.27732 9.3414 7.25045 7.8501H4.75V13.3C4.75 13.9858 5.31421 14.55 6 14.55H7.26131C7.38838 13.1521 8.57004 12.05 10 12.05H18C19.5142 12.05 20.75 13.2858 20.75 14.8C20.75 15.2143 20.4142 15.55 20 15.55C19.5858 15.55 19.25 15.2143 19.25 14.8C19.25 14.1143 18.6858 13.55 18 13.55H10C9.31421 13.55 8.75 14.1143 8.75 14.8V15.3V15.8C8.75 16.4858 9.31421 17.05 10 17.05C10.4142 17.05 10.75 17.3858 10.75 17.8C10.75 18.2143 10.4142 18.55 10 18.55C8.57004 18.55 7.38838 17.448 7.26131 16.05H6C4.48579 16.05 3.25 14.8143 3.25 13.3V7.1001V2.80005C3.25 2.38584 3.58579 2.05005 4 2.05005ZM8.75 7.1001V7.80005C8.75 8.48584 9.31421 9.05005 10 9.05005H18C18.6858 9.05005 19.25 8.48584 19.25 7.80005V6.80005C19.25 6.11426 18.6858 5.55005 18 5.55005H10C9.31421 5.55005 8.75 6.11426 8.75 6.80005V7.1001ZM16.15 16.3C16.15 15.8858 15.8142 15.55 15.4 15.55C14.9858 15.55 14.65 15.8858 14.65 16.3V17.9501H13C12.5858 17.9501 12.25 18.2859 12.25 18.7001C12.25 19.1143 12.5858 19.4501 13 19.4501H14.65V21.2C14.65 21.6143 14.9858 21.95 15.4 21.95C15.8142 21.95 16.15 21.6143 16.15 21.2V19.4501H17.9C18.3142 19.4501 18.65 19.1143 18.65 18.7001C18.65 18.2859 18.3142 17.9501 17.9 17.9501H16.15V16.3Z" fill="black"/>
</svg>
